X:1
T:James Gibb editions
T:Psalm 96 (Becker) - Schütz
%%score [ ( 1 2 ) ( 3 4 ) ]
L:1/8
Q:1/4=98
M:3/4
K:C
V:1 treble nm="Soprano Alto"
V:2 treble 
V:3 bass nm="Tenor Bass"
V:4 bass 
V:1
"^Cornelius Becker\n(1561-1604)""^Psalm 96, SWV 194""^Heinrich Schütz\n(1585-1672)" c2 c2 c2 | %1
w: ~Sin- get dem|
 B4 B2 | A4 (BA) | ^G6 | A2 c2 d2 | e4 c2 | c2 B4 | c6 | G2 G2 G2 | d4 d2 | c4 (dc) | B6 | %12
w: Herr ein|neu- es *|Lied,|all Welt soll|froh- lich|sin- gen|mit|zu Ehrn dem|Her- ren,|un- serm *|Gott,|
 A2 c2 d2 | e4 A2 | d2 B4 | A12 |] %16
w: lobt sei- nen|Na- men|früh und|spat.|
V:2
 E2 E2 ^F2 | G4 E2 | E4 D2 | E6 | C2 F2 D2 | G4 G2 | F4 F2 | E6 | E2 E2 E2 | G4 G2 | G4 ^F2 | G6 | %12
 C2 F2 D2 | G4 F2 | F2 E4 | E12 |] %16
V:3
 C2 C2 C2 | D4 B,2 | C4 A,2 | B,6 | A,2 A,2 A,2 | B,4 C2 | D4 D2 | G,6 | %8
 C2"^2. Sein Heil predigt man alle Tag, groß Ehr ihm wird gesaget nach,\nunter den Heiden überall sein Wunder groß man rühmen soll.\n\n3. Über all Götter ist der Herr, mächtig groß und zu loben sehr,\nwunderbar ist die Herrschaft sein über die Völker insgemein.\n\n5. Gewaltiglich ist all sein Tun und löblich in sein'm Heiligtum,\nihr Völker bringt dem Herren her, dem Herren bringet Macht und Ehr.\n\n7. Es fürcht den Herren alle Welt, zu seinem Dienst und Lob bestellt,\nunter den Heiden sag man frei, daß Gott, unser Herr, König sei.\n\n9. Es freue sich des Himmels Thron, die Erde sei fröhlich davon,\ndas Meer soll auch mit brausen drein, und was drin ist, soll fröhlich sein.\n\n10. Das Feld freu sich ohn Unterlaß und was darauf ist Laub und Gras,\nalle Bäum, die im Walde sein, in unserm Gott sich hoch erfreun.\n\n11. Der Herr kommt als ein Richter wert, zu richten recht den Kreis der Erd,\nmit G'rechtigkeit er richten schlecht, seine Wahrheit hat allzeit Recht." C2 C2 | %9
 D4 B,2 | C4 A,2 | D6 | A,2 A,2 A,2 | B,2 C2 D2 | A,4 ^G,2 | A,12 |] %16
V:4
 A,2 A,2 A,2 | G,4 G,2 | F,4 F,2 | E,6 | F,2 F,2 F,2 | E,4 E,2 | D,4 D,2 | C,6 | C2 C2 C2 | %9
 B,4 B,2 | A,4 A,2 | G,6 | F,2 F,2 F,2 | E,4 (D,E,) | (F,D,) E,4 | A,,12 |] %16

